X:1
T:Mortem non metuo
T:Daniel Friderici
T:Source : Bicinia sacra---Rostock---J.Richelius---1642. Editor : André Vierendeels (06/07/17).
T:Notes : Original clefs : C1, C1 Editorial accidentals above the staff
T:Mortem non metuo
T:©
T:©
C:Daniel Friderici
Z:©
%%score [ 1 2 ]
L:1/8
Q:1/4=120
M:2/2
K:F
V:1 treble nm="Soprano 1" snm="S 1"
V:2 treble nm="Soprano 2" snm="S 2"
V:1
 z8 | d8- | d4 G4 | z4 d4 | d2 d2 c2 B2 | A2 G2 G2 B2 | F2 G2 D4 | G2 F2 B4 | B2 F3 F G2 | D4 G4 | %10
w: |Mor-|* tem,|mor-|tem non me- tu-|o, mor- tem non|me- tu- o,|qui- a Chri-|sti fu- ne- re|vi- vo,|
 d2 e2 f4 | d2 c3 c B2 | AGAB ABAG | FD G3 ^F/E/ F2 | G8 :: A8 | z8 | B8 | z8 | B2 BB B2 A2 | %20
w: qui- a Chri-|sti fu- ne- re|vi- * * * * * * *||vo:|Mors,||mors,||mors ni- hil in Chri-|
 B4 d2 dd | d2 c2 d2 c2- | cc c2 c2 B2 | A2 =B2 z2 c2- | cc c2 c2 B2 | A2 =B2 z2 c2- | cc c2 d4- | %27
w: sti, mors ni- hil|in Chri- sti fu-|* ne- re ju- ris|ha- bet, fu-|* ne- re ju- ris|ha- bet, fu-|* ne- re ju-|
 d2 DE F4- | F4 G4 | A4 B4 | A4 G4- | G2 ^FE F4 | G8 :| %33
w: |* ris|ha- *|||bet.|
V:2
 G8- | G4 D4 | z4 B4 | G4 z2 B2 | G2 B2 F2 G2 | D2 d2 d2 d2 | c2 B2 A4 | B2 c2 d4 | d2 c3 c B2 | %9
w: Mor-|* tem,|mor-|tem, mor-|tem non me- tu-|o, mor- tem non|me- tu- o,|qui- a Chri-|sti fu- ne- re|
 A4 G4 | G2 c2 B4 | B2 F3 F G2 | DEFG AGAB | A2 G2 A4 | G8 :: z8 | F8 | z8 | D8 | d2 dd d2 c2 | %20
w: vi- vo,|qui- a Chri-|sti fu- ne- re|vi- * * * * * * *||vo:||Mors,||mors,|mors ni- hil in Chri-|
 d4 B2 BB | B2 A2 B2 A2- | AA A2 A2 G2 | ^F2 G2 z2 A2- | AA A2 A2 G2 | ^F2 G2 z2 A2- | AA A2 B3 A | %27
w: sti, mors ni- hil|in Chri- sti fu-|* ne- re ju- ris|ha- bet, fu-|* ne- re ju- ris|ha- bet, fu-|* ne re ju- *|
 G2 A2 D4- | D4 E4 | F2 EF GD d2- | d2 c2 B2 AD | A8 | G8 :| %33
w: |* ris|ha- * * * * *|||bet.|

